X: 9316
T: Dancin' Dick
R: jig
M: 6/8
K: Ddorian
A|:ded fed|a_ba gfe|fdB cde|gfe dcA|
ded fed|a_ba gfe|dcd egf|edc d2A:|
|:dAd dcd|efe dcB|cBc fed|~c3 c2A|
ded fed|a_ba gfe|dcd egf|edc d2A:|

